!!!COM: Scriabin, Alexander
!!!OTL@@FR: Prélude en ré majeur
!!!OTL@@EN: Prelude in D Major
!!!OPR@@FR: 24 Préludes
!!!OPR@@EN: 24 Preludes
!!!OPS: 11
!!!ONM: 5
!!!ODT: 1896
!!!AGN: Prelude
**kern	**kern	**dynam
*staff2	*staff1	*staff1/2
*Ipiano	*Ipiano	*
*clefF4	*clefG2	*
*k[f#c#]	*k[f#c#]	*
*D:	*D:	*
*M4/2	*M4/2	*
8AL	2c# 2g 2a	.
8E	.	.
8B	.	.
8AJ	.	.
8GL	2d 2g 2b	.
8F#	.	.
8A	.	.
8GJ	.	.
=1	=1	=1
*	*^	*
8F#L	2rc	2c# 2a 2cc#	.
8AA	.	.	.
8BB	.	.	.
8AAJ	.	.	.
10DDL	2rc	2d 2f# 2dd	.
10AA	.	.	.
10F#	.	.	.
10c#	.	.	.
10BJ	.	.	.
8AL	2c# 2g	[4a	.
8E	.	.	.
8B	.	12aL]	.
.	.	12g#X	.
8AJ	.	.	.
.	.	12aJ	.
8GL	2d 2gn	4..b	.
8F#	.	.	.
8A	.	.	.
8GJ	.	.	.
.	.	16cc#	.
*	*v	*v	*
=2	=2	=2
8F#L	2c# 2a 2cc#	.
8AA	.	.
8BB	.	.
8AAJ	.	.
8DDL	2d 2f# 2dd	.
8D	.	.
8G#X	.	.
8AJ	.	.
8A#XL	2e 2f# 2cc#	.
8C#	.	.
8FF#	.	.
8C#J	.	.
8DL	2A#X 2e 2f#	.
8C#	.	.
8F#	.	.
8C#J	.	.
=3	=3	=3
*	*^	*
8EL	1B 1e	2.gn	.
8BB	.	.	.
8C#	.	.	.
8DJ	.	.	.
8EL	.	.	.
8D	.	.	.
8E	.	4g	.
8C#J	.	.	.
8FF#	2A#X	4g	.
4C#	.	.	.
.	.	4f#	.
8A#X	.	.	.
8EE	2B	4an	.
4E	.	.	.
.	.	4g	.
8d	.	.	.
=4	=4	=4	=4
8AA	2A	4f#	.
4G	.	.	.
.	.	4e	.
8d	.	.	.
8c#L	2A 2e	4b	.
8G	.	.	.
8c#	.	4a	.
8BJ	.	.	.
8AL	2c# 2g	[4a	.
8E	.	.	.
8B	.	12aL]	.
.	.	12g#X	.
8AJ	.	.	.
.	.	12aJ	.
8GL	2d 2gn	4..b	.
8F#	.	.	.
8A	.	.	.
8GJ	.	.	.
.	.	16cc#	.
=5	=5	=5	=5
8F#L	2rc	2c# 2a 2cc#	.
8AA	.	.	.
8BB	.	.	.
8AAJ	.	.	.
8DDL	2rc	2d 2f# 2dd	.
8AA	.	.	.
8D	.	.	.
8AJ	.	.	.
8dL	2f# 2ccn	[4dd	.
8A	.	.	.
8e	.	12ddL]	.
.	.	12cc#X	.
8dJ	.	.	.
.	.	12ddJ	.
8cnL	2g 2ccn	4..ee	.
8B	.	.	.
8d	.	.	.
8cJ	.	.	.
.	.	16ff#	.
*	*v	*v	*
=6	=6	=6
8BL	2f# 2dd 2ff#	.
8D	.	.
8E	.	.
8DJ	.	.
8GGL	2g 2b 2gg	.
8G	.	.
8c#X	.	.
8dJ	.	.
8d#XL	2a 2b 2ff#	.
8F#	.	.
8BB	.	.
8F#J	.	.
8GL	2d#X 2a 2b	.
8F#	.	.
8B	.	.
8F#J	.	.
=7	=7	=7
*	*^	*
8AL	1e 1a	2.ccn	.
8E	.	.	.
8F#	.	.	.
8GJ	.	.	.
8AL	.	.	.
8G	.	.	.
8A	.	12bL	.
.	.	12cc	.
8F#J	.	.	.
.	.	12aaJ	.
8d#XL	2a 2b	4gg	.
8F#	.	.	.
8BB	.	4ff#	.
8F#J	.	.	.
8BL	2d#X 2an	4a#X	.
8F#	.	.	.
8BB	.	4b	.
8FF#J	.	.	.
=8	=8	=8	=8
8EEL	[2e [2g	4b	.
8AA	.	.	.
8G	.	[4ccn	.
8AJ	.	.	.
8AL	4e] 4g]	4cc]	.
8G	.	.	.
8AA	4rc	4c#X 4g 4cc#X	.
8EEJ	.	.	.
8FFn	4a	1cn [1ddn	.
4D	.	.	.
.	4g#X	.	.
8cn	.	.	.
8FF#X	4b	.	.
4D	.	.	.
.	4a	.	.
8c	.	.	.
=9	=9	=9	=9
8GG	2cn 2gn	4dd]	.
4D	.	.	.
.	.	4cc#X	.
8cn	.	.	.
8GG#X	2cn 2f#	4ee	.
4D	.	.	.
.	.	4dd	.
8c	.	.	.
.	16qqc\LL	.	.
.	[16qqf#\	.	.
.	16qqdd\	.	.
.	[16qqdd\JJ	.	.
8AA	2f#] 2dd]	4bb	.
4D	.	.	.
.	.	4aa	.
8c	.	.	.
8AA#X	2g 2cc#X	4gg	.
4Gn	.	.	.
.	.	4ff#	.
8c#X	.	.	.
=10	=10	=10	=10
8BB	2g 2dd	4gg	.
4G	.	.	.
.	.	4dd	.
8d	.	.	.
8BB-X	2d 2g#X	4ee	.
4G#X	.	.	.
.	.	4ee#X	.
8d	.	.	.
8AAnL	1rc	2d 2a 2ff#	.
8F#	.	.	.
8c#	.	.	.
8BnJ	.	.	.
8AL	.	2d 2f# 2dd	.
8G#	.	.	.
8B	.	.	.
8AJ	.	.	.
=11	=11	=11	=11
8GnL	2d	1a	.
8F#	.	.	.
8A	.	.	.
8GJ	.	.	.
8F#L	2G 2c#	.	.
8E	.	.	.
8BB	.	.	.
[8AAJ	.	.	.
8DDL 8AA]	2c# 2g	[4a	.
8E	.	.	.
8B	.	12aL]	.
.	.	12g#X	.
8AJ	.	.	.
.	.	12aJ	.
8GL	2d 2gn	4..b	.
8F#	.	.	.
8A	.	.	.
8GJ	.	.	.
.	.	16cc#	.
=12	=12	=12	=12
8F#L	2rc	2c# 2a 2cc#	.
8AA	.	.	.
8BB	.	.	.
8AAJ	.	.	.
10DDL	2rc	2d 2f# 2dd	.
10AA	.	.	.
10F#	.	.	.
10c#	.	.	.
10BJ	.	.	.
.	[16qqg\LL	.	.
.	[16qqcc#\JJ	.	.
8AL	2g] 2cc#]	[4aa	.
8E	.	.	.
8B	.	12aaL]	.
.	.	12gg#X	.
8AJ	.	.	.
.	.	12aaJ	.
.	[16qqd\LL	.	.
.	[16qqgn\	.	.
.	[16qqb\	.	.
.	[16qqdd\JJ	.	.
8GL	2d] 2g] 2b] 2dd]	4..bb	.
8F#	.	.	.
8A	.	.	.
8GJ	.	.	.
.	.	16ccc#	.
=13	=13	=13	=13
.	[16qqc#\LL	.	.
.	[16qqa\	.	.
.	[16qqcc#\	.	.
.	[16qqff#\JJ	.	.
8F#L	2c#] 2a] 2cc#] 2ff#]	2ccc#	.
8AA	.	.	.
8BB	.	.	.
8AAJ	.	.	.
.	[16qqd\LL	.	.
.	[16qqa\	.	.
.	[16qqdd\	.	.
.	[16qqff#\JJ	.	.
10DDL	1d] 1a] 1dd] 1ff#]	1ddd	.
10AA	.	.	.
10F#	.	.	.
10d	.	.	.
10AJ	.	.	.
2a	.	.	.
2DD 2AA 2D	2rc	2F# 2d 2f#	.
*	*v	*v	*
=14	=14	=14
0DD 0AA 0D	0F# 0d 0f#	.
==	==	==
*-	*-	*-
!!!system-decoration: {(*)}
!!!ENC: Bryan Jacob Bell
!!!END: November 2021 to April 2022
!!!PED: Günter Philipp
!!!PTL: Ausgewählte Klavierwerke (Edition Peters)
